svgs/solid/truck-plow.svg

<svg xmlns="http://www.w3.org/2000/svg" viewBox="0 0 640 512"><!--! Font Awesome Pro 6.0.0-alpha3 by @fontawesome - https://fontawesome.com License - https://fontawesome.com/license (Commercial License) --><path d="M598.7 393.4c-14.5-14.5-22.63-34.13-22.63-54.63V237.2c0-20.5 8.126-40.13 22.63-54.63l36.63-36.75c6.251-6.125 6.251-16.35 .0001-22.6l-22.54-22.54c-6.251-6.25-16.46-6.229-22.59 .0208l-36.75 36.63c-26.5 26.5-41.38 62.38-41.38 99.87V288h-32V224c0-17.75-14.25-32-32-32h-45.88l-82.01-136.8C311.5 40.88 295.8 32 278.9 32H168C145.9 32 128 49.88 128 72L128 192H32C14.25 192 0 206.2 0 224v96c0 17.75 14.25 32 32 32h5.876c-3.625 10.12-5.877 20.75-5.877 32c0 53 42.1 96 96 96s96-43 96-96c0-11.25-2.249-21.88-5.874-32h75.76c-3.625 10.12-5.876 20.75-5.876 32c0 53 42.1 96 96 96s96-43 96-96c0-11.25-2.25-21.88-5.875-32h39.15c3.125 32.63 16.75 63.25 40.13 86.63l36.75 36.63c6.126 6.25 16.34 6.271 22.59 .0208l22.54-22.54c6.251-6.25 6.251-16.48-.0001-22.6L598.7 393.4zM192 96h77.88l57.63 96H192V96zM160 384c0 17.62-14.38 32-32 32S96.01 401.6 96.01 384s14.38-32 32-32S160 366.4 160 384zM384 416c-17.63 0-32-14.38-32-32s14.38-32 32-32s31.98 14.38 31.98 32S401.7 416 384 416z"/></svg>

<svg xmlns="http://www.w3.org/2000/svg" viewBox="0 0 640 512"><!-- Font Awesome Pro 6.0.0-alpha2 by @fontawesome - https://fontawesome.com License - https://fontawesome.com/license (Commercial License) --><path d="M598.683 393.375C584.182 378.875 576.056 359.25 576.056 338.75V237.25C576.056 216.75 584.182 197.125 598.683 182.625L635.312 145.875C641.563 139.75 641.563 129.5 635.312 123.25L612.81 100.75C606.559 94.5 596.308 94.5 590.183 100.75L553.429 137.375C526.926 163.875 512.05 199.75 512.05 237.25V288H480.047V224C480.047 206.25 465.796 192 448.044 192H402.164L320.156 55.25C311.53 40.875 295.779 32 278.902 32H168.016C145.889 32 128.012 49.875 128.012 72V192H32.003C14.251 192 0 206.25 0 224V320C0 337.75 14.251 352 32.003 352H37.879C34.253 362.125 32.003 372.75 32.003 384C32.003 437 75.007 480 128.012 480S224.022 437 224.022 384C224.022 372.75 221.772 362.125 218.146 352H293.904C290.278 362.125 288.028 372.75 288.028 384C288.028 437 331.032 480 384.038 480S480.047 437 480.047 384C480.047 372.75 477.797 362.125 474.171 352H513.3C516.425 384.625 530.051 415.25 553.429 438.625L590.183 475.25C596.308 481.5 606.559 481.5 612.81 475.25L635.312 452.75C641.563 446.5 641.563 436.25 635.312 430.125L598.683 393.375ZM192.019 96H269.901L327.532 192H192.019V96ZM160.016 384C160.016 401.625 145.639 416 128.012 416S96.009 401.625 96.009 384S110.386 352 128.012 352S160.016 366.375 160.016 384ZM384.038 416C366.411 416 352.034 401.625 352.034 384S366.411 352 384.038 352S416.041 366.375 416.041 384S401.664 416 384.038 416Z"/></svg>
